dist/svg/static/lights-led-small.svg

<svg xmlns="http://www.w3.org/2000/svg" width="24" height="24" viewBox="0 0 24 24"><g fill="none" stroke="currentColor" stroke-miterlimit="10"><path d="M7 13.5h1m1 0h1m1 0h1m1 0h1m1 0h1m1-1h1m1-1h1m-1-2h1m-8.097-.223s.286 1.292 3.13 1.292c3.084 0 1.793-3.293 1.793-3.293"/><path d="M10.792 17.61S6.398 19.276.85 12.481l22.108-7.204-1.145 8.286s-.227 1.65-1.167 1.83z"/></g></svg>

<svg xmlns="http://www.w3.org/2000/svg" width="24" height="24" viewBox="0 0 24 24"><g fill="none" stroke="currentColor" stroke-miterlimit="10"><path d="M7 13.5h1M9 13.5h1M11 13.5h1M13 13.5h1M15 13.5h1M17 12.5h1M19 11.5h1M19 9.5h1M11.903 9.277s.286 1.292 3.13 1.292c3.084 0 1.793-3.293 1.793-3.293"/><path d="M10.792 17.61S6.398 19.276.85 12.481l22.108-7.204-1.145 8.286s-.227 1.65-1.167 1.83z"/></g></svg>
